X:1
T:Send the Light
T:Send the Light
T:William M. Bell
T:William M. Bell, 1896
T:Public Domain Courtesy of the Cyber Hymnal™
T:Public Domain Courtesy of the Cyber Hymnal™
C:William M. Bell
Z:Public Domain
Z:Courtesy of the Cyber Hymnal™
%%score ( 1 2 ) ( 3 4 )
L:1/8
Q:1/4=108
M:9/8
K:Eb
V:1 treble 
V:2 treble 
V:3 bass 
V:4 bass 
V:1
 [EG] [EG]2 [FA] | [GB]3- [GB]2 [Ge] [Bd]2 [Ac] | [GB]3- [GB]2 [GB] [FA]2 [EG] | %3
w: 1.~See now the|waves * that bathe the|shores, * Re- flect- ing|
w: 2.~The lands long|dark * by Sa- tan’s|night * Sad- ly a-|
w: 3.~Too long the|light * have we with-|held, * Whose rays their|
 [FA]3- [FA]2 [FA] [DB]2 [DF] | [EG]3- [EG]2 [EG] [EG]2 [FA] | [GB]3- [GB]2 [EG] ([EG][FA])[GB] | %6
w: light * the sun out-|pours; * So in all|lands * be- neath * the|
w: wait * the com- ing|light; * There mil- lions|sink * in dead- * ly|
w: night * would have dis-|pelled; * Speed on the|day, * the glor- * ious|
 [Ac]3- [Ac]2 [Ac] ([Ac][Bd])[ce] | [GB]3- [GB]2 [EG] (BA)[DF] | E3- E2 || %9
w: sun, * The reign * of|day * is now * be-|gun. *|
w: dread, * No pil- * low|sure * for dy- * ing|head. *|
w: day, * Thro’ Christ, * the|Light, * the Truth, * the|Way. *|
[M:12/8]"^Refrain" ([EG][FA])[GB] | [Ac]8 [Ac] ([ce][Bd])[Ac] | [GB]8 z ([EG][DF])E | %12
w: Send * the|light, Oh, send * it|on! Till * all|
w: |||
w: |||
 F8 [DF] (BA)[DF] | G8 z ([EG][FA])[GB] | [Ac]8 [Ac] ([ce][Bd])[Ac] | [GB]8 z [EG]2 [GB] | %16
w: lands take up * the|song; See * the|suf- fering where * they|fall; Hear, oh,|
w: ||||
w: ||||
 A3- [DA]2 [EG] [FA]3 [B,D]3 | [B,E]6- [B,E]2 z |] %18
w: hear, their plead- ing call.||
w: ||
w: ||
V:2
 x4 | x9 | x9 | x9 | x9 | x9 | x9 | x6 D2 x | E3- E2 ||[M:12/8] x3 | x12 | x11 E | %12
 (D2 D D2 D D2) D2 x2 | (E2 E E2 E E2) x4 | x12 | x12 | F2 E x9 | x9 |] %18
V:3
 [E,B,] [E,B,]2 [E,B,] | [E,E]3- [E,E]2 [E,B,] [E,C]2 [E,D] | %2
w: ~ ~ ~|~ * ~ ~ ~|
 [E,E]3- [E,E]2 [E,B,] [E,B,]2 [E,B,] | [B,,B,]3- [B,,B,]2 [B,,B,] [B,,F,]2 [B,,B,] | %4
w: ~ * ~ ~ ~|~ * ~ ~ ~|
 [E,B,]3- [E,B,]2 [E,B,] [E,B,]2 [E,B,] | [E,E]3- [E,E]2 [E,B,] [E,B,]2 [E,E] | %6
w: ~ * ~ ~ ~|~ * ~ ~ ~|
 [A,E]3- [A,E]2 [A,E] [A,E]2 [A,E] | ([B,-E]3 _B,2) [B,,B,] [B,,F,]2 [B,,A,] | [E,G,]3- [E,G,]2 || %9
w: ~ * ~ ~ ~|~ * ~ ~ ~|~ *|
[M:12/8] [E,B,]2 [E,E] | [A,E]2 [A,E] [A,E]2 [A,E] [A,E]2 [A,E] [A,E]2 [A,E] | %11
w: ~ ~|~ Oh, send the light ~ ~ ~|
 [E,E]2 [E,E] [E,E]2 [E,E] [E,E]2 z (B,A,)[E,G,] | B,2 B, B,2 B, B,2 [B,,B,] [B,,F,]2 [B,,B,] | %13
w: Oh, send it on! ~ ~ * ~|lands take up the song, Yes, till all|
 [E,B,]2 [E,B,] [E,B,]2 [E,B,] [E,B,]2 z [E,B,]2 [E,E] | %14
w: lands take up the song; See the|
 [A,E]2 [A,E] [A,E]2 [A,E] [A,E]2 [A,E] [A,E]2 [A,E] | %15
w: suf- fering where they fall, Yes, all the|
 [E,E]2 [E,E] [E,E]2 [E,E] [E,E]2 z [E,B,]2 [E,B,] | D2 C [B,,B,]2 [B,,B,] [B,,B,]3 [B,,A,]3 | %17
w: suf- fering where they fall, ~ ~|~ their plead- ing, * *|
 [E,G,]6- [E,G,]2 z |] %18
w: |
V:4
 x4 | x9 | x9 | x9 | x9 | x9 | x9 | x3 _B,2 x4 | x5 ||[M:12/8] x3 | x12 | x9 E,2 x | B,,8 x4 | %13
 x12 | x12 | x12 | B,,3- x9 | x9 |] %18

